X: 40709
T: Toss The Feathers
R: reel
M: 4/4
K: Dmixolydian
|:D2 FD ADFD|ABcA G~E3|D2 (3FED ADFA|d2 ed cAGE|
(3DDD AD (3DDD AD|ABcA G~E3|cABG A2 AB|1 cded cAGE:|2 cded cAGc||
|:Ad (3ddd Ad (3ddd|Ad (3ddd ed^cd|eaag a2 ag|eaag ed^cd|
efge afge|dfed cAGB|cABG A2 AB|1 cded cAGc:|2 cded cAGE||

